Suru++-Ubuntu/apps/scalable/clipgrab.svg

<svg width="256" height="256" version="1.1" viewBox="0 0 67.73 67.73" xmlns="http://www.w3.org/2000/svg" xmlns:xlink="http://www.w3.org/1999/xlink">
 <defs>
  <linearGradient id="linearGradient1108" x1="296" x2="296" y1="-212" y2="236" gradientUnits="userSpaceOnUse">
   <stop style="stop-color:#ffffff" offset="0"/>
   <stop style="stop-color:#ffffff;stop-opacity:.09803922" offset=".125"/>
   <stop style="stop-color:#000000;stop-opacity:.09803922" offset=".925"/>
   <stop style="stop-color:#000000;stop-opacity:.49803922" offset="1"/>
  </linearGradient>
  <clipPath id="clipPath1082-3-3">
   <path d="M 361.9375,-212 C 507.2348,-212 528,-191.28677 528,-46.125 V 70.125 C 528,215.28618 507.2348,236 361.9375,236 H 214.0625 C 68.7652,236 48,215.28618 48,70.125 V -46.125 C 48,-191.28677 68.7652,-212 214.0625,-212 Z" style="fill:#8c59d9"/>
  </clipPath>
  <linearGradient id="linearGradient878" x1="32" x2="272" y1="156" y2="156" gradientTransform="matrix(0 .26458333 -.26458333 0 74.498196 223.03096)" gradientUnits="userSpaceOnUse">
   <stop style="stop-color:#19b6ee" offset="0"/>
   <stop style="stop-color:#66c2e3" offset="1"/>
  </linearGradient>
  <filter id="filter938" x="-.02" y="-.03" width="1.046" height="1.05" style="color-interpolation-filters:sRGB">
   <feGaussianBlur stdDeviation="2.32"/>
  </filter>
  <filter id="filter4569" x="-.01" y="-.01" width="1.023" height="1.025" style="color-interpolation-filters:sRGB">
   <feGaussianBlur stdDeviation="1.16"/>
  </filter>
  <filter id="filter1500" x="-.02" y="-.03" width="1.045" height="1.051" style="color-interpolation-filters:sRGB">
   <feGaussianBlur stdDeviation="1.773"/>
  </filter>
 </defs>
 <g transform="translate(0,-229.26666)">
  <path transform="matrix(.26458333 0 0 .26458333 -1.8735229e-8 232.67026)" d="m162.53675 3.5680001c72.64865 0 83.03125 10.356615 83.03125 82.937505v58.125005c0 72.58059-10.3826 82.9375-83.03125 82.9375h-73.937496c-72.648654 0-83.031254-10.35691-83.031254-82.9375v-58.125005c0-72.58089 10.3826-82.937505 83.031254-82.937505z" style="filter:url(#filter4569);opacity:.1"/>
  <path transform="matrix(.26458333 0 0 .26458333 -1.8735229e-8 232.67026)" d="m162.53675 5.5680001c72.64865 0 83.03125 10.356615 83.03125 82.937505v58.125005c0 72.58059-10.3826 82.9375-83.03125 82.9375h-73.937496c-72.648654 0-83.031254-10.35691-83.031254-82.9375v-58.125005c0-72.58089 10.3826-82.937505 83.031254-82.937505z" style="filter:url(#filter938);opacity:.2"/>
  <path d="m43.004513 233.61429c19.221622 0 21.968685 2.74019 21.968685 21.94388v15.37891c0 19.20362-2.747063 21.94388-21.968685 21.94388h-19.56263c-19.221622 0-21.968685-2.74026-21.968685-21.94388v-15.37891c0-19.20369 2.747063-21.94388 21.968685-21.94388z" style="fill:url(#linearGradient878)"/>
  <path transform="matrix(.13229167 0 0 .13229167 -4.876802 261.66013)" d="M 361.9375,-212 C 507.2348,-212 528,-191.28677 528,-46.125 V 70.125 C 528,215.28618 507.2348,236 361.9375,236 H 214.0625 C 68.7652,236 48,215.28618 48,70.125 V -46.125 C 48,-191.28677 68.7652,-212 214.0625,-212 Z" clip-path="url(#clipPath1082-3-3)" style="fill:none;opacity:.4;stroke-linecap:round;stroke-linejoin:round;stroke-width:8;stroke:url(#linearGradient1108)"/>
  <path transform="matrix(.26458333 0 0 .26458333 0 229.26666)" d="m245.01367 180.53516c0.37457-6.91814 0.55469-14.47458 0.55469-23.04102v-58.124999c0-9.07261-0.1621-17.172939-0.58789-24.402344-0.2129-3.614703-0.49227-7.011234-0.84961-10.203125s-0.79319-6.178252-1.32031-8.972656c-0.52713-2.794405-1.14495-5.396115-1.86719-7.81836s-1.5495-4.664823-2.49219-6.740234-2.00098-3.984379-3.18945-5.738281c-1.18848-1.753903-2.50721-3.352827-3.9668-4.810547-1.45959-1.457721-3.06036-2.774073-4.8164-3.960938-1.75605-1.186864-3.66632-2.244212-5.74414-3.185547-2.07783-0.941334-4.32311-1.76715-6.74805-2.488281-2.42495-0.72113-5.03073-1.338982-7.82813-1.865234-2.79739-0.526253-5.78724-0.961659-8.98242-1.31836-3.19518-0.3567-6.59459-0.633229-10.21289-0.845703-7.2366-0.424948-15.3447-0.58789-24.42578-0.58789h-73.937501c-9.081081 0-17.189179 0.162942-24.425781 0.58789-1.203104 0.070649-2.241095 0.19559-3.396484 0.28125a150 150 0 0 0-1.150391 17.636719 150 150 0 0 0 150 150 150 150 0 0 0 35.38672-4.40234z" style="fill-opacity:.99607843;fill:#ffffff;opacity:.25"/>
  <path transform="matrix(.26458333 0 0 .26458333 0 229.26666)" d="m59.029297 19c-0.592343 5.289191-0.922144 10.604497-0.955078 15.927734-1.5e-5 0.0039-1.5e-5 0.0078 0 0.01172 0 83.682106 67.870661 151.55274 151.55273 151.55274 3e-3 1e-5 5e-3 1e-5 8e-3 0 11.91975-0.0553 23.78875-1.52086 35.36523-4.35742 0 0 0.5096-3.41015-1.8e-4 -3.13477-11.09394 2.65599-23.96311 4.3314-35.37305 4.38477-82.00004 0-148.44194-66.43869-148.44726-148.4375v-0.0078c-4e-6 -0.0013-2e-6 -0.0027 0-0.0039 0.033466-5.326303 0.386139-10.644422 0.992187-15.935566z" style="fill:#ffffff;filter:url(#filter1500);opacity:.6"/>
 </g>
</svg>

<svg xmlns="http://www.w3.org/2000/svg" xmlns:xlink="http://www.w3.org/1999/xlink" width="256" height="256" version="1.1" viewBox="0 0 67.73 67.73">
 <defs>
  <linearGradient id="linearGradient1108" x1="296" x2="296" y1="-212" y2="236" gradientUnits="userSpaceOnUse" xlink:href="#linearGradient1013"/>
  <linearGradient id="linearGradient1013">
   <stop style="stop-color:#ffffff" offset="0"/>
   <stop offset=".125" style="stop-color:#ffffff;stop-opacity:0.09803922"/>
   <stop offset=".925" style="stop-color:#000000;stop-opacity:0.09803922"/>
   <stop style="stop-color:#000000;stop-opacity:0.49803922" offset="1"/>
  </linearGradient>
  <clipPath id="clipPath1082-3-3" clipPathUnits="userSpaceOnUse">
   <path style="fill:#8c59d9" d="M 361.9375,-212 C 507.2348,-212 528,-191.28677 528,-46.125 V 70.125 C 528,215.28618 507.2348,236 361.9375,236 H 214.0625 C 68.7652,236 48,215.28618 48,70.125 V -46.125 C 48,-191.28677 68.7652,-212 214.0625,-212 Z"/>
  </clipPath>
  <linearGradient id="linearGradient878" x1="32" x2="272" y1="156" y2="156" gradientTransform="matrix(0,0.26458333,-0.26458333,0,74.498196,223.03096)" gradientUnits="userSpaceOnUse" xlink:href="#linearGradient876"/>
  <linearGradient id="linearGradient876">
   <stop style="stop-color:#19b6ee" offset="0"/>
   <stop style="stop-color:#66c2e3" offset="1"/>
  </linearGradient>
  <filter id="filter938" width="1.046" height="1.05" x="-.02" y="-.03" style="color-interpolation-filters:sRGB">
   <feGaussianBlur stdDeviation="2.32"/>
  </filter>
  <filter id="filter4569" width="1.023" height="1.025" x="-.01" y="-.01" style="color-interpolation-filters:sRGB">
   <feGaussianBlur stdDeviation="1.16"/>
  </filter>
  <filter id="filter1500" width="1.045" height="1.051" x="-.02" y="-.03" style="color-interpolation-filters:sRGB">
   <feGaussianBlur stdDeviation="1.773"/>
  </filter>
 </defs>
 <g transform="translate(0,-229.26666)">
  <path style="opacity:0.1;filter:url(#filter4569)" d="m 162.53675,3.5680001 c 72.64865,0 83.03125,10.3566149 83.03125,82.9375049 v 58.125005 c 0,72.58059 -10.3826,82.9375 -83.03125,82.9375 H 88.599254 C 15.9506,227.56801 5.568,217.2111 5.568,144.63051 V 86.505505 c 0,-72.58089 10.3826,-82.9375049 83.031254,-82.9375049 z" transform="matrix(0.26458333,0,0,0.26458333,-1.8735229e-8,232.67026)"/>
  <path d="m 162.53675,5.5680001 c 72.64865,0 83.03125,10.3566149 83.03125,82.9375049 v 58.125005 c 0,72.58059 -10.3826,82.9375 -83.03125,82.9375 H 88.599254 C 15.9506,229.56801 5.568,219.2111 5.568,146.63051 V 88.505505 c 0,-72.58089 10.3826,-82.9375049 83.031254,-82.9375049 z" transform="matrix(0.26458333,0,0,0.26458333,-1.8735229e-8,232.67026)" style="opacity:0.2;filter:url(#filter938)"/>
  <path d="m 43.004513,233.61429 c 19.221622,0 21.968685,2.74019 21.968685,21.94388 v 15.37891 c 0,19.20362 -2.747063,21.94388 -21.968685,21.94388 h -19.56263 c -19.221622,0 -21.968685,-2.74026 -21.968685,-21.94388 v -15.37891 c 0,-19.20369 2.747063,-21.94388 21.968685,-21.94388 z" style="fill:url(#linearGradient878)"/>
  <path style="opacity:0.4;fill:none;stroke:url(#linearGradient1108);stroke-width:8;stroke-linecap:round;stroke-linejoin:round" d="M 361.9375,-212 C 507.2348,-212 528,-191.28677 528,-46.125 V 70.125 C 528,215.28618 507.2348,236 361.9375,236 H 214.0625 C 68.7652,236 48,215.28618 48,70.125 V -46.125 C 48,-191.28677 68.7652,-212 214.0625,-212 Z" clip-path="url(#clipPath1082-3-3)" transform="matrix(0.13229167,0,0,0.13229167,-4.876802,261.66013)"/>
  <path d="M 245.01367 180.53516 C 245.38824 173.61702 245.56836 166.06058 245.56836 157.49414 L 245.56836 99.369141 C 245.56836 90.296531 245.40626 82.196202 244.98047 74.966797 C 244.76757 71.352094 244.4882 67.955563 244.13086 64.763672 C 243.77352 61.571781 243.33767 58.58542 242.81055 55.791016 C 242.28342 52.996611 241.6656 50.394901 240.94336 47.972656 C 240.22112 45.550411 239.39386 43.307833 238.45117 41.232422 C 237.50848 39.157011 236.45019 37.248043 235.26172 35.494141 C 234.07324 33.740238 232.75451 32.141314 231.29492 30.683594 C 229.83533 29.225873 228.23456 27.909521 226.47852 26.722656 C 224.72247 25.535792 222.8122 24.478444 220.73438 23.537109 C 218.65655 22.595775 216.41127 21.769959 213.98633 21.048828 C 211.56138 20.327698 208.9556 19.709846 206.1582 19.183594 C 203.36081 18.657341 200.37096 18.221935 197.17578 17.865234 C 193.9806 17.508534 190.58119 17.232005 186.96289 17.019531 C 179.72629 16.594583 171.61819 16.431641 162.53711 16.431641 L 88.599609 16.431641 C 79.518528 16.431641 71.41043 16.594583 64.173828 17.019531 C 62.970724 17.09018 61.932733 17.215121 60.777344 17.300781 A 150 150 0 0 0 59.626953 34.9375 A 150 150 0 0 0 209.62695 184.9375 A 150 150 0 0 0 245.01367 180.53516 z" transform="matrix(0.26458333,0,0,0.26458333,0,229.26666)" style="opacity:0.25;fill:#ffffff;fill-opacity:0.99607843"/>
  <path d="m 59.029297,19 c -0.592343,5.289191 -0.922144,10.604497 -0.955078,15.927734 -1.5e-5,0.0039 -1.5e-5,0.0078 0,0.01172 0,83.682106 67.870661,151.552736 151.552731,151.552736 0.003,1e-5 0.005,1e-5 0.008,0 11.91975,-0.0553 23.78875,-1.52086 35.36523,-4.35742 0,0 0.5096,-3.41015 -1.8e-4,-3.13477 -11.09394,2.65599 -23.96311,4.3314 -35.37305,4.38477 -82.00004,0 -148.441939,-66.43869 -148.447262,-148.437504 v -0.0078 c -4e-6,-0.0013 -2e-6,-0.0027 0,-0.0039 C 61.213154,29.609263 61.565827,24.291144 62.171875,19 Z" transform="matrix(0.26458333,0,0,0.26458333,0,229.26666)" style="opacity:0.6;fill:#ffffff;filter:url(#filter1500)"/>
 </g>
</svg>
